icons/3_Generic/Education.svg

<svg width="1024" height="1024" viewBox="0 0 1024 1024" fill="none" xmlns="http://www.w3.org/2000/svg">
<g clip-path="url(#clip0_3_473)">
<path d="M512 1024C794.77 1024 1024 794.77 1024 512C1024 229.23 794.77 0 512 0C229.23 0 0 229.23 0 512C0 794.77 229.23 1024 512 1024Z" fill="#8C72BD"/>
<path d="M823.949 419.971L519.159 257.421C516.959 256.234 514.499 255.613 511.999 255.613C509.5 255.613 507.039 256.234 504.839 257.421L200.049 419.971C192.629 423.941 189.829 433.181 193.809 440.601C195.226 443.252 197.397 445.424 200.049 446.841L273.249 485.901V611.931C273.249 620.661 276.459 629.091 282.269 635.601C314.959 672.001 388.279 733.111 511.999 733.111C555.559 733.521 598.759 725.111 638.989 708.401V799.151C638.989 807.571 645.809 814.391 654.229 814.391C662.649 814.391 669.469 807.571 669.469 799.151V693.361C696.517 678.128 720.919 658.615 741.729 635.581C747.549 629.081 750.759 620.661 750.749 611.931V485.901L823.949 446.841C831.369 442.871 834.169 433.631 830.189 426.211C828.772 423.559 826.601 421.387 823.949 419.971ZM511.999 702.631C400.249 702.631 334.209 647.871 304.949 615.231C304.161 614.312 303.728 613.141 303.729 611.931V502.161L504.839 609.391C509.319 611.771 514.689 611.771 519.159 609.391L638.989 545.491V675.021C605.969 690.821 563.939 702.631 511.999 702.631ZM720.269 611.931C720.269 613.141 719.839 614.311 719.049 615.231C704.413 631.447 687.749 645.711 669.469 657.671V529.231L720.269 502.151V611.921V611.931ZM664.009 497.641C663.219 496.961 662.369 496.351 661.469 495.841L519.239 420.001C511.649 416.361 502.549 419.551 498.909 427.141C495.479 434.281 498.089 442.861 504.919 446.871L632.019 514.681L512.009 578.691L239.609 433.411L512.009 288.131L784.409 433.411L664.019 497.641H664.009Z" fill="white"/>
</g>
<defs>
<clipPath id="clip0_3_473">
<rect width="1024" height="1024" fill="white"/>
</clipPath>
</defs>
</svg>

<svg xmlns="http://www.w3.org/2000/svg" width="1024" height="1024" fill="none">
   <g clip-path="url(#a)">
      <path fill="#8C72BD" d="M512 1024c282.77 0 512-229.23 512-512S794.77 0 512 0 0 229.23 0 512s229.23 512 512 512Z"/>
      <path fill="#fff" d="m823.949 419.971-304.79-162.55a15.077 15.077 0 0 0-14.32 0l-304.79 162.55c-7.42 3.97-10.22 13.21-6.24 20.63a15.196 15.196 0 0 0 6.24 6.24l73.2 39.06v126.03c0 8.73 3.21 17.16 9.02 23.67 32.69 36.4 106.01 97.51 229.73 97.51 43.56.41 86.76-8 126.99-24.71v90.75c0 8.42 6.82 15.24 15.24 15.24s15.24-6.82 15.24-15.24v-105.79a287.539 287.539 0 0 0 72.26-57.78c5.82-6.5 9.03-14.92 9.02-23.65v-126.03l73.2-39.06c7.42-3.97 10.22-13.21 6.24-20.63a15.184 15.184 0 0 0-6.24-6.24Zm-311.95 282.66c-111.75 0-177.79-54.76-207.05-87.4a5.064 5.064 0 0 1-1.22-3.3v-109.77l201.11 107.23c4.48 2.38 9.85 2.38 14.32 0l119.83-63.9v129.53c-33.02 15.8-75.05 27.61-126.99 27.61Zm208.27-90.7c0 1.21-.43 2.38-1.22 3.3a254.452 254.452 0 0 1-49.58 42.44v-128.44l50.8-27.08v109.78Zm-56.26-114.29c-.79-.68-1.64-1.29-2.54-1.8l-142.23-75.84c-7.59-3.64-16.69-.45-20.33 7.14-3.43 7.14-.82 15.72 6.01 19.73l127.1 67.81-120.01 64.01-272.4-145.28 272.4-145.28 272.4 145.28-120.39 64.23h-.01Z"/>
   </g>
   <defs>
      <clipPath id="a">
         <path fill="#fff" d="M0 0h1024v1024H0z"/>
      </clipPath>
   </defs>
</svg>
